build/static/img/icons/profile.svg

<svg width="27" height="27" viewBox="0 0 27 27" fill="none" xmlns="http://www.w3.org/2000/svg">
<path fill-rule="evenodd" clip-rule="evenodd" d="M10.283 0.735942C1.27932 4.493 3.90944 17.7903 13.6572 17.7903C17.689 17.7903 20.7265 15.578 22.1368 11.6144C24.7066 4.39091 17.4611 -2.25934 10.283 0.735942ZM18.0154 4.36185C20.4398 6.61498 20.4922 10.9116 18.1265 13.4027C14.3926 17.3325 7.14706 14.3859 7.14706 8.93723C7.14706 3.57572 14.0432 0.67233 18.0154 4.36185ZM8.33823 19.8809C3.19474 21.1194 0 23.5704 0 26.2791C0 27.4445 2.17191 27.1044 2.65394 25.8628C3.49968 23.6827 7.84429 22.2134 13.496 22.1961C19.332 22.1772 24.6176 23.9435 24.6176 25.9115C24.6176 26.5099 25.1537 27 25.8088 27C26.464 27 27 26.3191 27 25.4867C27 21.2537 16.1603 17.9977 8.33823 19.8809Z" fill="white"/>
</svg>

<svg width="27" height="27" fill="none" xmlns="http://www.w3.org/2000/svg"><path fill-rule="evenodd" clip-rule="evenodd" d="M10.283.736C1.279 4.493 3.909 17.79 13.657 17.79c4.032 0 7.07-2.212 8.48-6.176C24.707 4.391 17.46-2.259 10.283.736zm7.732 3.626c2.425 2.253 2.477 6.55.111 9.04-3.733 3.93-10.979.984-10.979-4.465 0-5.361 6.896-8.265 10.868-4.575zM8.338 19.88C3.195 21.119 0 23.57 0 26.279c0 1.166 2.172.825 2.654-.416.846-2.18 5.19-3.65 10.842-3.667 5.836-.019 11.122 1.747 11.122 3.715 0 .599.536 1.089 1.19 1.089.656 0 1.192-.68 1.192-1.513 0-4.233-10.84-7.49-18.662-5.606z" fill="#fff"/></svg>
